X:1
T:Mazurka St Pierre
C:Sarah Mathews
R:mazurka
M:3/4
L:1/8
K:Bm
d3 Adc | d3 Adc |B3 dcB | A2 F2 E2 | D3 Fdc | d3 Adc | BAB cdf | e4 dc ::
d3efa | g3 age | f3 gfd | e2 c2 A2 | d3 efa | g3 age | fgf dec | d6 :|
